movekom_app/assets/icons/rele_bar_icon.svg

<svg height="49.703" viewBox="0 0 48.233 49.703" width="48.233" xmlns="http://www.w3.org/2000/svg"><path d="m51.446 36h-1.387v-18.315a1.218 1.218 0 0 0 -1.218-1.218h-2.51v-11.161a1.218 1.218 0 0 0 -.357-.861l-4.087-4.088a1.218 1.218 0 0 0 -.861-.357h-7.737a1.218 1.218 0 0 0 -1.218 1.218v15.25h-6.047v-15.25a1.218 1.218 0 0 0 -1.218-1.218h-7.736a1.218 1.218 0 0 0 -.861.357l-4.089 4.088a1.218 1.218 0 0 0 -.357.861v11.162h-2.509a1.218 1.218 0 0 0 -1.218 1.218v18.314h-1.387a1.218 1.218 0 0 0 -1.218 1.218v10.267a1.218 1.218 0 0 0 1.218 1.215h44.8a1.218 1.218 0 0 0 1.218-1.218v-10.26a1.218 1.218 0 0 0 -1.221-1.222zm-40.975-17.1h37.153v17.1h-37.153zm39.758 27.367h-42.363v-7.827h42.363z" fill="none" stroke="#fff" transform="matrix(-1 0 0 -1 53.164 49.203)"/></svg>

<svg xmlns="http://www.w3.org/2000/svg" width="48.233" height="49.703" viewBox="0 0 48.233 49.703">
  <path id="Trazado_968" data-name="Trazado 968" d="M51.446,36H50.059V17.685a1.218,1.218,0,0,0-1.218-1.218h-2.51V5.306a1.218,1.218,0,0,0-.357-.861L41.887.357A1.218,1.218,0,0,0,41.026,0H33.289a1.218,1.218,0,0,0-1.218,1.218v15.25H26.024V1.218A1.218,1.218,0,0,0,24.806,0H17.07a1.218,1.218,0,0,0-.861.357L12.12,4.445a1.218,1.218,0,0,0-.357.861V16.468H9.254a1.218,1.218,0,0,0-1.218,1.218V36H6.649a1.218,1.218,0,0,0-1.218,1.218V47.485A1.218,1.218,0,0,0,6.649,48.7h44.8a1.218,1.218,0,0,0,1.218-1.218V37.222A1.218,1.218,0,0,0,51.446,36ZM10.471,18.9H47.624V36H10.471ZM50.229,46.267H7.866V38.44H50.229Z" transform="translate(53.164 49.203) rotate(180)" fill="none" stroke="#fff" stroke-width="1"/>
</svg>
